shape(2,3)
.mult(voronoi(90,2))
.blend(o0).luma()
.modulatePixelate(noise(50,10),1000)
.add(shape(3,0.15)
.rotate(1,1).mult(voronoi(9000,0.5)))
.scrollY([0.1,-0.09,0.1,0.1],0)
.rotate(5).scrollX([0.1,-0.07,0.1,0.5],0)
.out()
