//inspiration Doppler Effect

// @title W07-01
// @license CC BY-NC-SA 4.0 https://creativecommons.org/licenses/by-nc-sa/4.0/
// @by uandha
// @date Mar 02, 2026

osc(300,1.3).kaleid(100).scale(0.5, 0.5) //change 300 - 200 and 1.0 - 0.03
.scrollX(0.1, 0.05) // change 0.05 - 0.03 - 0.09
.out()
