
shape(20,0.1,0.01)
  .scale(() => Math.sin(time)*1.5) //change 1.5 - 15
  .repeat(() => Math.sin(time)*10) // change 10 - 50
  .modulate(noise(2,0))
  .rotate(0.5, 0.9) //change 0.9 - 0.1 and 0.1 - 0.5
.out(o0)
