// @title W09-03
// @license CC BY-NC-SA 4.0 https://creativecommons.org/licenses/by-nc-sa/4.0/
// @by uandha
// @date Mar 22, 2026

s0.initCam()

src(s0).modulate(osc())
  .mult(shape(4))
  .modulateScrollY(osc(3,1),0.5)
  .colorama(0.1)
  // .pixelate(21,10)
  .out()
